X:90
T:Turkey in the Straw
C: Traditional
M:4/4
L:1/8
R:Reel
K:G
BA|:"G"GFGA G2B,C|"G"DEDB, D2GA|"G"B2B2 "Em"BAGA|"Am"B2A2 "D7"A2BA|
|"G"GFGA G2B,C|"G"DEDB, D2GA|"G"Bd2e "Em"dBGA|1"D7"B2A2 "G"G2 BA :|2"D7"B2A2 "G"G2 A2|]
|:"G"Bd2B d2d2|"G7"Bd2B d4|"C"ce2c e2e2|"C"ce2c "D7"e2f2|
"G"g2g2 d2d2|"G"Bd2B "D7"A2GA|"G"Bd2e "Em"dBGA|1"D7"B2A2 "G"G2A2:|2"D7"B2A2 "G"G4:|

